images/databiz.svg

<svg width="114" height="20" viewBox="0 0 114 20" fill="none" xmlns="http://www.w3.org/2000/svg">
<path id="databiz" fill-rule="evenodd" clip-rule="evenodd" d="M25.1002 19.4495C24.463 19.8165 23.7254 20 22.8874 20C21.9359 20 21.0455 19.8209 20.2162 19.4626C19.3869 19.1044 18.6559 18.6086 18.023 17.9751C17.3901 17.3416 16.8948 16.6099 16.5369 15.7798C16.179 14.9498 16 14.0585 16 13.1062C16 12.1538 16.179 11.2626 16.5369 10.4325C16.8948 9.60245 17.3901 8.87069 18.023 8.23722C18.6559 7.60376 19.3869 7.10791 20.2162 6.74967C21.0455 6.39144 21.9359 6.21232 22.8874 6.21232C23.7254 6.21232 24.463 6.39362 25.1002 6.75623C25.7375 7.11883 26.2656 7.5972 26.6846 8.19135V0H29.8795V19.6592H26.6846V18.021C26.2656 18.6064 25.7375 19.0826 25.1002 19.4495ZM21.1001 16.4089C21.6544 16.7497 22.2632 16.9201 22.9266 16.9201C23.6075 16.9201 24.2098 16.7497 24.7336 16.4089C25.2574 16.0682 25.6676 15.6073 25.9644 15.0262C26.2612 14.4452 26.4096 13.8052 26.4096 13.1062C26.4096 12.3984 26.2612 11.754 25.9644 11.173C25.6676 10.592 25.2552 10.1311 24.7271 9.7903C24.1989 9.44954 23.5988 9.27916 22.9266 9.27916C22.2545 9.27916 21.6435 9.45173 21.0935 9.79685C20.5436 10.142 20.1027 10.6029 19.771 11.1796C19.4393 11.7562 19.2735 12.3984 19.2735 13.1062C19.2735 13.8139 19.4393 14.4561 19.771 15.0328C20.1027 15.6094 20.5458 16.0682 21.1001 16.4089ZM39.2939 20C40.0883 20 40.7801 19.8187 41.3693 19.4561C41.9585 19.0935 42.4365 18.6195 42.8031 18.0341L42.934 19.6592H46.142V6.55308H42.9471L43.0912 8.23067C42.6111 7.63652 42.0284 7.14723 41.3431 6.76278C40.6579 6.37833 39.8788 6.18611 39.0059 6.18611C38.0719 6.18611 37.1989 6.36086 36.3871 6.71035C35.5753 7.05985 34.8595 7.54478 34.2397 8.16514C33.6199 8.7855 33.1398 9.50634 32.7994 10.3277C32.459 11.149 32.2887 12.0271 32.2887 12.962C32.2887 13.9318 32.4677 14.8405 32.8256 15.6881C33.1835 16.5356 33.6854 17.2827 34.3314 17.9292C34.9773 18.5758 35.7237 19.0826 36.5704 19.4495C37.4172 19.8165 38.325 20 39.2939 20ZM37.5721 16.422C38.1351 16.754 38.7396 16.9201 39.3856 16.9201C40.0839 16.9201 40.6906 16.7409 41.2056 16.3827C41.7207 16.0245 42.1113 15.5461 42.3775 14.9476C42.6438 14.3491 42.7507 13.6872 42.6983 12.962C42.6372 12.2805 42.4365 11.6623 42.096 11.1075C41.7556 10.5526 41.3191 10.1092 40.7866 9.7772C40.2542 9.44517 39.6562 9.27916 38.9928 9.27916C38.3032 9.27916 37.6856 9.45828 37.14 9.81651C36.5944 10.1747 36.1732 10.6531 35.8765 11.2516C35.5797 11.8502 35.4618 12.5164 35.5229 13.2503C35.5928 13.9231 35.811 14.5369 36.1776 15.0917C36.5442 15.6466 37.0091 16.09 37.5721 16.422ZM53.7626 19.6592V9.75098H56.3028V6.55308H53.7626V2.43775H50.5677V6.55308H48.6299V9.75098H50.5677V19.6592H53.7626ZM67.1118 19.4561C66.5226 19.8187 65.8308 20 65.0364 20C64.0675 20 63.1597 19.8165 62.3129 19.4495C61.4662 19.0826 60.7198 18.5758 60.0739 17.9292C59.4279 17.2827 58.926 16.5356 58.5681 15.6881C58.2102 14.8405 58.0312 13.9318 58.0312 12.962C58.0312 12.0271 58.2015 11.149 58.5419 10.3277C58.8823 9.50634 59.3624 8.7855 59.9822 8.16514C60.602 7.54478 61.3178 7.05985 62.1296 6.71035C62.9414 6.36086 63.8143 6.18611 64.7484 6.18611C65.6213 6.18611 66.4004 6.37833 67.0856 6.76278C67.7709 7.14723 68.3535 7.63652 68.8336 8.23067L68.6896 6.55308H71.8845V19.6592H68.6765L68.5456 18.0341C68.179 18.6195 67.701 19.0935 67.1118 19.4561ZM65.1281 16.9201C64.4821 16.9201 63.8776 16.754 63.3146 16.422C62.7516 16.09 62.2867 15.6466 61.9201 15.0917C61.5535 14.5369 61.3352 13.9231 61.2654 13.2503C61.2043 12.5164 61.3221 11.8502 61.6189 11.2516C61.9157 10.6531 62.3369 10.1747 62.8825 9.81651C63.4281 9.45828 64.0457 9.27916 64.7353 9.27916C65.3987 9.27916 65.9967 9.44517 66.5291 9.7772C67.0616 10.1092 67.4981 10.5526 67.8385 11.1075C68.179 11.6623 68.3797 12.2805 68.4408 12.962C68.4932 13.6872 68.3863 14.3491 68.12 14.9476C67.8538 15.5461 67.4632 16.0245 66.9481 16.3827C66.4331 16.7409 65.8264 16.9201 65.1281 16.9201ZM84.6837 19.4626C83.8501 19.8209 82.9532 20 81.993 20C81.1724 20 80.4457 19.8143 79.8128 19.443C79.18 19.0716 78.6497 18.5889 78.2219 17.9948V19.6592H75.027V0H78.2219V8.19135C78.6497 7.5972 79.18 7.11446 79.8128 6.74312C80.4457 6.37178 81.1724 6.18611 81.993 6.18611C83.2674 6.18611 84.4284 6.49629 85.4759 7.11664C86.5234 7.737 87.3571 8.56924 87.9768 9.61337C88.5966 10.6575 88.9065 11.813 88.9065 13.0799C88.9065 14.0323 88.7276 14.9279 88.3697 15.7667C88.0118 16.6055 87.5164 17.3416 86.8835 17.9751C86.2506 18.6086 85.5174 19.1044 84.6837 19.4626ZM81.9537 16.9069C81.2903 16.9069 80.6967 16.7366 80.1729 16.3958C79.6492 16.055 79.2389 15.5941 78.9421 15.0131C78.6453 14.4321 78.4969 13.7877 78.4969 13.0799C78.4969 12.3897 78.6453 11.754 78.9421 11.173C79.2389 10.592 79.6492 10.1289 80.1729 9.78375C80.6967 9.43862 81.2903 9.26606 81.9537 9.26606C82.6258 9.26606 83.2412 9.43643 83.7999 9.77719C84.3586 10.118 84.8038 10.5789 85.1355 11.1599C85.4672 11.7409 85.633 12.381 85.633 13.0799C85.633 13.7877 85.4672 14.4299 85.1355 15.0066C84.8038 15.5832 84.3608 16.0441 83.8065 16.3893C83.2522 16.7344 82.6346 16.9069 81.9537 16.9069ZM94.0458 4.13499C93.7272 4.44517 93.3366 4.60026 92.8739 4.60026C92.4113 4.60026 92.0185 4.44517 91.6955 4.13499C91.3725 3.82481 91.211 3.43381 91.211 2.96199C91.211 2.49891 91.3725 2.11009 91.6955 1.79554C92.0185 1.481 92.4113 1.32372 92.8739 1.32372C93.3366 1.32372 93.7272 1.481 94.0458 1.79554C94.3645 2.11009 94.5238 2.49891 94.5238 2.96199C94.5238 3.43381 94.3645 3.82481 94.0458 4.13499ZM111.874 9.60026C112.337 9.60026 112.727 9.44517 113.046 9.13499C113.364 8.82481 113.524 8.43381 113.524 7.96199C113.524 7.49891 113.364 7.11009 113.046 6.79554C112.727 6.481 112.337 6.32372 111.874 6.32372C111.411 6.32372 111.018 6.481 110.695 6.79554C110.373 7.11009 110.211 7.49891 110.211 7.96199C110.211 8.43381 110.373 8.82481 110.695 9.13499C111.018 9.44517 111.411 9.60026 111.874 9.60026ZM11.6275 17.4777C10.3634 18.7084 8.81352 19.3237 6.97792 19.3237C5.14231 19.3237 3.58378 18.7084 2.30232 17.4777C1.02086 16.2471 0.380127 14.6957 0.380127 12.8237C0.380127 10.9864 1.02086 9.44372 2.30232 8.19572C3.58378 6.94772 5.14231 6.32372 6.97792 6.32372C8.81352 6.32372 10.3634 6.94772 11.6275 8.19572C12.8917 9.44372 13.5238 10.9864 13.5238 12.8237C13.5238 14.6957 12.8917 16.2471 11.6275 17.4777ZM94.4583 6.55308H91.2634V19.6592H94.4583V6.55308ZM108.857 16.4613V19.6592H97.675V16.4613L104.261 9.75098H97.675V6.55308H108.857V9.75098L102.284 16.4613H108.857Z" fill="#ADADAD"/>
</svg>

<svg xmlns="http://www.w3.org/2000/svg" width="114" height="20" fill="none"><path fill="#ADADAD" fill-rule="evenodd" d="M25.1 19.45c-.637.367-1.375.55-2.213.55-.951 0-1.841-.18-2.67-.537a6.988 6.988 0 0 1-2.194-1.488 6.995 6.995 0 0 1-1.486-2.195A6.68 6.68 0 0 1 16 13.106c0-.952.179-1.843.537-2.674a6.996 6.996 0 0 1 1.486-2.195 6.989 6.989 0 0 1 2.193-1.487 6.663 6.663 0 0 1 2.671-.538c.838 0 1.576.182 2.213.544a4.847 4.847 0 0 1 1.585 1.435V0h3.195v19.66h-3.195V18.02a4.976 4.976 0 0 1-1.585 1.428Zm-4-3.041a3.42 3.42 0 0 0 1.827.511c.68 0 1.283-.17 1.807-.511.523-.34.934-.802 1.23-1.383a4.158 4.158 0 0 0 .446-1.92c0-.708-.149-1.352-.446-1.933a3.513 3.513 0 0 0-1.237-1.383 3.248 3.248 0 0 0-1.8-.51c-.672 0-1.284.172-1.834.517a3.9 3.9 0 0 0-1.322 1.383 3.794 3.794 0 0 0-.498 1.926A3.826 3.826 0 0 0 21.1 16.41ZM39.294 20c.794 0 1.486-.181 2.075-.544a4.375 4.375 0 0 0 1.434-1.422l.131 1.625h3.208V6.553h-3.195l.144 1.678a5.992 5.992 0 0 0-1.748-1.468c-.685-.385-1.464-.577-2.337-.577-.934 0-1.807.175-2.619.524a6.818 6.818 0 0 0-2.147 1.455c-.62.62-1.1 1.341-1.44 2.163-.341.821-.511 1.7-.511 2.634a6.935 6.935 0 0 0 2.042 4.967 7.158 7.158 0 0 0 2.24 1.52c.846.367 1.754.551 2.723.551Zm-1.722-3.578a3.51 3.51 0 0 0 1.814.498c.698 0 1.305-.18 1.82-.537a3.383 3.383 0 0 0 1.171-1.435c.267-.599.374-1.26.321-1.986a4.213 4.213 0 0 0-.602-1.854 4.015 4.015 0 0 0-1.31-1.33 3.32 3.32 0 0 0-1.793-.499 3.3 3.3 0 0 0-1.853.538 3.59 3.59 0 0 0-1.264 1.435c-.296.598-.414 1.264-.353 1.998a4.05 4.05 0 0 0 .655 1.842c.366.555.831.998 1.394 1.33Zm16.19 3.237V9.751h2.54V6.553h-2.54V2.438h-3.194v4.115H48.63v3.198h1.938v9.908h3.195Zm13.35-.203c-.59.363-1.281.544-2.076.544a6.774 6.774 0 0 1-2.723-.55 7.158 7.158 0 0 1-2.24-1.52 6.935 6.935 0 0 1-2.043-4.967c.001-.936.172-1.814.512-2.635.34-.822.82-1.542 1.44-2.163A6.818 6.818 0 0 1 62.13 6.71a6.551 6.551 0 0 1 2.618-.524c.873 0 1.652.192 2.338.577a5.991 5.991 0 0 1 1.748 1.468l-.144-1.678h3.195V19.66h-3.209l-.13-1.625a4.375 4.375 0 0 1-1.434 1.422Zm-1.984-2.536a3.51 3.51 0 0 1-1.813-.498 4.226 4.226 0 0 1-1.395-1.33 4.049 4.049 0 0 1-.655-1.842c-.06-.734.057-1.4.354-1.998a3.592 3.592 0 0 1 1.264-1.435 3.3 3.3 0 0 1 1.852-.538 3.32 3.32 0 0 1 1.794.498c.533.332.97.776 1.31 1.33.34.555.54 1.174.602 1.855.052.725-.055 1.387-.321 1.986a3.383 3.383 0 0 1-1.172 1.435c-.515.358-1.122.537-1.82.537Zm19.556 2.543a6.74 6.74 0 0 1-2.691.537c-.82 0-1.547-.186-2.18-.557a5.154 5.154 0 0 1-1.591-1.448v1.664h-3.195V0h3.195v8.191a5.152 5.152 0 0 1 1.59-1.448c.634-.371 1.36-.557 2.181-.557 1.274 0 2.435.31 3.483.93a7.026 7.026 0 0 1 2.5 2.497c.62 1.045.93 2.2.93 3.467 0 .952-.178 1.848-.536 2.687a6.955 6.955 0 0 1-3.686 3.696Zm-2.73-2.556c-.664 0-1.257-.17-1.781-.511a3.531 3.531 0 0 1-1.23-1.383 4.187 4.187 0 0 1-.446-1.933c0-.69.148-1.326.445-1.907a3.58 3.58 0 0 1 1.23-1.39 3.164 3.164 0 0 1 1.782-.517c.672 0 1.287.17 1.846.511.559.341 1.004.802 1.335 1.383.332.58.498 1.221.498 1.92 0 .708-.166 1.35-.498 1.927a3.881 3.881 0 0 1-1.329 1.382 3.435 3.435 0 0 1-1.852.518ZM94.046 4.135c-.319.31-.71.465-1.172.465-.463 0-.855-.155-1.178-.465-.323-.31-.485-.701-.485-1.173 0-.463.162-.852.484-1.166a1.626 1.626 0 0 1 1.179-.472c.463 0 .853.157 1.172.472.319.314.478.703.478 1.166 0 .472-.16.863-.478 1.173ZM111.874 9.6c.463 0 .853-.155 1.172-.465.318-.31.478-.701.478-1.173 0-.463-.16-.852-.478-1.166a1.604 1.604 0 0 0-1.172-.472c-.463 0-.856.157-1.179.472a1.567 1.567 0 0 0-.484 1.166c0 .472.162.863.484 1.173.323.31.716.465 1.179.465ZM11.628 17.478c-1.265 1.23-2.814 1.846-4.65 1.846-1.836 0-3.394-.616-4.676-1.846C1.021 16.248.38 14.696.38 12.824c0-1.838.64-3.38 1.922-4.628 1.282-1.248 2.84-1.872 4.676-1.872 1.836 0 3.385.624 4.65 1.872 1.264 1.248 1.896 2.79 1.896 4.628 0 1.872-.632 3.423-1.896 4.654Zm82.83-10.925h-3.195V19.66h3.195V6.553Zm14.399 9.908v3.198H97.675v-3.198l6.586-6.71h-6.586V6.553h11.182v3.198l-6.573 6.71h6.573Z" clip-rule="evenodd"/></svg>
